!!!!SEGMENT: pl-sa--138-a-iii-38--001-002_luna-georgius--beatus-vir-dispersit.krn
!!!cenid: 17xx:480
!!!COM: Luna, Georgius
!!!COM-rismID: pe41010079
!!!CDT:
!!!CNT:
!!!OPR: Beatus vir
!!!OTL: Dispersit
!!!OMV: 002
!!!PDT: 1760
!!!AGN: Sacred
!!!YEC: Copyright 2022 Narodowy Instytut Fryderyka Chopina (https://polishscores.org)
!!!YEM: License CC-BY-4.0 (https://creativecommons.org/licenses/by/4.0)
!!!SMS-siglum: PL-SA
!!!SMS-shelfmark: 138/A III 38
!!!SMS-shelfwork: 001-002 M
!!!SMS-variant:
!!!SMS-altvar:
!!!NIFC-rismSourceID: 1001030074
!!!NIFC-rismChildID: 1001030074
!!!NIFC-islandoraID: none
!!!URL-pdf-islandora:
!!!URL-scan: https://bc.bdsandomierz.pl/dlibra/publication/1495/edition/1463/content @EN{Scan in the Sandomierz Diocese Digital Library} @PL{Skany w portalu Cyfrowa Biblioteka Diecezjalna w Sandomierzu}
!!!IIIF:
!!!ONB-nifc: UWAGA: części: Beatus vir, Dispersit, Gloria Patri. UWAGA: brak partii violino primo
!!!AIN: 2 clrno 2 oboe 1 organ 1 soprn 1 tenor 2 violn
!!!OMD:
!!!OMD-mod: Andante
!!!key: F
**kern	**dynam	**kern	**dynam	**kern	**kern	**text	**kern	**kern	**kern	**kern	**kern
*part9	*part9	*part8	*part8	*part7	*part6	*part6	*part5	*part4	*part3	*part2	*part1
*staff9	*staff9	*staff8	*staff8	*staff7	*staff6	*staff6	*staff5	*staff4	*staff3	*staff2	*staff1
*ICklav	*	*ICstr	*	*ICstr	*ICvox	*	*ICvox	*ICbras	*ICbras	*ICww	*ICww
*Iorgan	*	*Ivioln	*	*Ivioln	*Itenor	*	*Isoprn	*Iclrno	*Iclrno	*Ioboe	*Ioboe
*I"Fondamento.	*	*I"Violino Secundo.	*	*I"Violino I	*I"[Tenore]	*	*I"Canto.	*I"Clarino Secundo.	*I"Clarino Primo.	*I"Oböa Secunda	*I"Oböa Prima.
*mI"Fundamento	*	*mI"Violino II	*	*mI"Violino I	*mI"Tenore	*	*mI"Soprano	*mI"Clarino II	*mI"Clarino I	*mI"Oboe II	*mI"Oboe I
*I'bc	*	*I'vl 2	*	*I'vl 1	*I'T	*	*I'C	*I'clno 2	*I'clno 1	*I'ob 2	*I'ob 1
!	!	!	!	!LO:MO:null:mod=*tacet	!	!	!LO:MO:null:mod=*tacet	!LO:MO:null:mod=*tacet	!LO:MO:null:mod=*tacet	!LO:MO:null:mod=*tacet	!LO:MO:null:mod=*tacet
*	*	*	*	*null	*	*	*null	*null	*null	*null	*null
*clefF4	*	*clefG2	*	*clefG2	*clefC4	*	*clefC1	*clefG2	*clefG2	*clefG2	*clefG2
*	*	*	*	*	*mclefGv2	*	*mclefG2	*	*	*	*
*k[b-]	*	*k[b-]	*	*k[b-]	*k[b-]	*	*k[b-]	*k[b-]	*k[b-]	*k[b-]	*k[b-]
*F:	*	*F:	*	*F:	*F:	*	*F:	*F:	*F:	*F:	*F:
*M3/4	*	*M3/4	*	*M3/4	*M3/4	*	*M3/4	*M3/4	*M3/4	*M3/4	*M3/4
=1	=1	=1	=1	=1	=1	=1	=1	=1	=1	=1	=1
*	*	*2\right	*	*	*	*	*	*	*	*	*
!LO:TX:b:i:mod= :t=Diſpersit	!	!LO:TX:b:i:mod= :t=Diſpersit	!	!	!LO:N:vis=00	!	!	!	!	!	!
!LO:TX:a:Bi:mod= :t=Andante.	!	!LO:TX:a:Bi:mod= :t=Andante.	!	!	!LO:TX:a:Bi:mod= :t=Ada&colon;	!	!LO:TX:a:i:mod= :t=Diſpersit Tacet	!LO:TX:a:i:mod= :t=Dispersit\nTacet.	!LO:TX:a:i:mod= :t=Diſpersit Tacet	!LO:TX:a:i:mod= :t=Diſpersit\nTacet.	!LO:TX:a:i:mod= :t=Dispersit\nTacet.
8r	.	2.ff\	.	2.ryy	0.r	.	2.ryy	2.ryy	2.ryy	2.ryy	2.ryy
8F\L	.	.	.	.	.	.	.	.	.	.	.
8G\	.	.	.	.	.	.	.	.	.	.	.
8A\	.	.	.	.	.	.	.	.	.	.	.
8B-\	.	.	.	.	.	.	.	.	.	.	.
8c\J	.	.	.	.	.	.	.	.	.	.	.
=2	=2	=2	=2	=2	=2	=2	=2	=2	=2	=2	=2
8d\L	.	4ff\	.	2.ryy	.	.	2.ryy	2.ryy	2.ryy	2.ryy	2.ryy
8B-\J	.	.	.	.	.	.	.	.	.	.	.
4c\	.	8ee\L	.	.	.	.	.	.	.	.	.
.	.	8dd\	.	.	.	.	.	.	.	.	.
4C/	.	8cc\	.	.	.	.	.	.	.	.	.
.	.	8b-\J	.	.	.	.	.	.	.	.	.
=3	=3	=3	=3	=3	=3	=3	=3	=3	=3	=3	=3
8F\L	.	8a/L	.	2.ryy	.	.	2.ryy	2.ryy	2.ryy	2.ryy	2.ryy
8F\	.	8g/J	.	.	.	.	.	.	.	.	.
8C\	.	4f/	.	.	.	.	.	.	.	.	.
8F\	.	.	.	.	.	.	.	.	.	.	.
8AA\	.	4r	.	.	.	.	.	.	.	.	.
8C\J	.	.	.	.	.	.	.	.	.	.	.
=4	=4	=4	=4	=4	=4	=4	=4	=4	=4	=4	=4
!LO:TX:t=P:problem=mixed beam	!	!LO:TX:t=P:problem=mixed beam	!	!	!	!	!	!	!	!	!
8FF/L	.	8f/L	.	2.ryy	.	.	2.ryy	2.ryy	2.ryy	2.ryy	2.ryy
8F\	.	8aa\J	.	.	.	.	.	.	.	.	.
8E\	.	4.aat\	.	.	.	.	.	.	.	.	.
8F\	.	.	.	.	.	.	.	.	.	.	.
8D\	.	.	.	.	.	.	.	.	.	.	.
8BBn\J	.	16gg\LL	.	.	.	.	.	.	.	.	.
.	.	16ff\JJ	.	.	.	.	.	.	.	.	.
=5	=5	=5	=5	=5	=5	=5	=5	=5	=5	=5	=5
!	!	!LO:TX:t=P:problem=mixed beam	!	!	!LO:N:vis=00	!	!	!	!	!	!
8r	.	8e/L	.	2.ryy	0.r	.	2.ryy	2.ryy	2.ryy	2.ryy	2.ryy
8E\L	.	8gg\J	.	.	.	.	.	.	.	.	.
8D\	.	4.ggT\	.	.	.	.	.	.	.	.	.
8E\	.	.	.	.	.	.	.	.	.	.	.
8C\	.	.	.	.	.	.	.	.	.	.	.
8AA\J	.	16ff\LL	.	.	.	.	.	.	.	.	.
.	.	16ee\JJ	.	.	.	.	.	.	.	.	.
=6	=6	=6	=6	=6	=6	=6	=6	=6	=6	=6	=6
!	!	!LO:TX:t=P:problem=mixed beam	!	!	!	!	!	!	!	!	!
8r	.	8d/L	.	2.ryy	.	.	2.ryy	2.ryy	2.ryy	2.ryy	2.ryy
8D\L	.	8ff\J	.	.	.	.	.	.	.	.	.
8C\	.	4.ffT\	.	.	.	.	.	.	.	.	.
8D\	.	.	.	.	.	.	.	.	.	.	.
8BBn\	.	.	.	.	.	.	.	.	.	.	.
8GG\J	.	16ee\LL	.	.	.	.	.	.	.	.	.
.	.	16dd\JJ	.	.	.	.	.	.	.	.	.
=7	=7	=7	=7	=7	=7	=7	=7	=7	=7	=7	=7
4C\	.	4ee\	.	2.ryy	.	.	2.ryy	2.ryy	2.ryy	2.ryy	2.ryy
4C\	.	4g/	.	.	.	.	.	.	.	.	.
4C\	.	4g/	.	.	.	.	.	.	.	.	.
=8	=8	=8	=8	=8	=8	=8	=8	=8	=8	=8	=8
4C\	.	4a/	.	2.ryy	.	.	2.ryy	2.ryy	2.ryy	2.ryy	2.ryy
4C\	.	4a/	.	.	.	.	.	.	.	.	.
4C\	.	4a/	.	.	.	.	.	.	.	.	.
=9	=9	=9	=9	=9	=9	=9	=9	=9	=9	=9	=9
!	!	!	!	!	!LO:N:vis=00	!	!	!	!	!	!
4C\	.	4ee\	.	2.ryy	0.r	.	2.ryy	2.ryy	2.ryy	2.ryy	2.ryy
4C\	.	4ee\	.	.	.	.	.	.	.	.	.
4C\	.	4ee\	.	.	.	.	.	.	.	.	.
=10	=10	=10	=10	=10	=10	=10	=10	=10	=10	=10	=10
8r	.	2.gg\	.	2.ryy	.	.	2.ryy	2.ryy	2.ryy	2.ryy	2.ryy
!LO:TX:t=P:problem=mixed beam	!	!	!	!	!	!	!	!	!	!	!
8C\L	.	.	.	.	.	.	.	.	.	.	.
8E\	.	.	.	.	.	.	.	.	.	.	.
8G\	.	.	.	.	.	.	.	.	.	.	.
8c\	.	.	.	.	.	.	.	.	.	.	.
8C/J	.	.	.	.	.	.	.	.	.	.	.
=11	=11	=11	=11	=11	=11	=11	=11	=11	=11	=11	=11
*	*	*Xtuplet	*	*	*	*	*	*	*	*	*
8F\L	.	12aa\L	.	2.ryy	.	.	2.ryy	2.ryy	2.ryy	2.ryy	2.ryy
.	.	12ff\	.	.	.	.	.	.	.	.	.
8B-\J	.	.	.	.	.	.	.	.	.	.	.
.	.	12dd\J	.	.	.	.	.	.	.	.	.
.	.	8qqff/	.	.	.	.	.	.	.	.	.
4c\	.	2ee\	.	.	.	.	.	.	.	.	.
4C/	.	.	.	.	.	.	.	.	.	.	.
!LO:LB:g=original	!	!	!	!	!	!	!	!	!	!	!
=12	=12	=12	=12	=12	=12	=12	=12	=12	=12	=12	=12
!	!LO:DY:a:t=piano.	!	!LO:DY:a:t=pia&colon;	!	!	!	!	!	!	!	!
4C/	p	4g/	p	2.ryy	.	.	2.ryy	2.ryy	2.ryy	2.ryy	2.ryy
4C/	.	4g/	.	.	.	.	.	.	.	.	.
4C/	.	4g/	.	.	.	.	.	.	.	.	.
=13	=13	=13	=13	=13	=13	=13	=13	=13	=13	=13	=13
!	!	!	!	!	!LO:N:vis=00	!	!	!	!	!	!
4C/	.	4a/	.	2.ryy	0.r	.	2.ryy	2.ryy	2.ryy	2.ryy	2.ryy
4C/	.	4a/	.	.	.	.	.	.	.	.	.
4C/	.	4a/	.	.	.	.	.	.	.	.	.
=14	=14	=14	=14	=14	=14	=14	=14	=14	=14	=14	=14
4C/	.	4gg\	.	2.ryy	.	.	2.ryy	2.ryy	2.ryy	2.ryy	2.ryy
4C/	.	4gg\	.	.	.	.	.	.	.	.	.
4C/	.	4gg\	.	.	.	.	.	.	.	.	.
=15	=15	=15	=15	=15	=15	=15	=15	=15	=15	=15	=15
8r	.	2.gg\	.	2.ryy	.	.	2.ryy	2.ryy	2.ryy	2.ryy	2.ryy
!LO:TX:t=P:problem=mixed beam	!	!	!	!	!	!	!	!	!	!	!
8C\L	.	.	.	.	.	.	.	.	.	.	.
8E\	.	.	.	.	.	.	.	.	.	.	.
8G\	.	.	.	.	.	.	.	.	.	.	.
8c\	.	.	.	.	.	.	.	.	.	.	.
8C/J	.	.	.	.	.	.	.	.	.	.	.
=16	=16	=16	=16	=16	=16	=16	=16	=16	=16	=16	=16
8F\L	.	12aa\L	.	2.ryy	.	.	2.ryy	2.ryy	2.ryy	2.ryy	2.ryy
.	.	12ff\	.	.	.	.	.	.	.	.	.
8B-\J	.	.	.	.	.	.	.	.	.	.	.
.	.	12dd\J	.	.	.	.	.	.	.	.	.
.	.	8qqff/	.	.	.	.	.	.	.	.	.
4c\	.	2ee\	.	.	.	.	.	.	.	.	.
4C/	.	.	.	.	.	.	.	.	.	.	.
!	!	!LO:LB:g=original	!	!	!	!	!	!	!	!	!
=17	=17	=17	=17	=17	=17	=17	=17	=17	=17	=17	=17
!	!LO:DY:a:t=for&colon;	!	!LO:DY:a:t=for	!	!LO:N:vis=0	!	!	!	!	!	!
8F\L	f	8ff\L	f	2.ryy	1.r	.	2.ryy	2.ryy	2.ryy	2.ryy	2.ryy
8f\	.	8ff\	.	.	.	.	.	.	.	.	.
8c\	.	8cc|\	.	.	.	.	.	.	.	.	.
8f\	.	8ff|\	.	.	.	.	.	.	.	.	.
8c\	.	8cc|\	.	.	.	.	.	.	.	.	.
8A\J	.	8a|\J	.	.	.	.	.	.	.	.	.
=18	=18	=18	=18	=18	=18	=18	=18	=18	=18	=18	=18
*2\right	*	*	*	*	*	*	*	*	*	*	*
!LO:SIC:s=2F;	!	!LO:SIC:s=2f;	!	!	!	!	!	!	!	!	!
2F;;\	.	2f;;/	.	2.ryy	.	.	2.ryy	2.ryy	2.ryy	2.ryy	2.ryy
4r	.	4r	.	.	.	.	.	.	.	.	.
=19	=19	=19	=19	=19	=19	=19	=19	=19	=19	=19	=19
!	!LO:DY:a:t=pia&colon;	!	!LO:DY:a:t=pia&colon;	!	!	!	!	!	!	!	!
!	!LO:MO:mod=.	!	!LO:MO:mod=.	!	!	!	!	!	!	!	!
8r	p	8r	p	2.ryy	4f\	Dis-	2.ryy	2.ryy	2.ryy	2.ryy	2.ryy
!	!LO:MO:null:mod=p	!	!LO:MO:null:mod=p	!	!	!	!	!	!	!	!
8F\L	.	8a\L	.	.	.	.	.	.	.	.	.
8G\	.	8b-\	.	.	4f\	-per-	.	.	.	.	.
8A\	.	8cc\	.	.	.	.	.	.	.	.	.
8B-\	.	8dd\	.	.	4f\	-sit	.	.	.	.	.
8c\J	.	8ee\J	.	.	.	.	.	.	.	.	.
=20	=20	=20	=20	=20	=20	=20	=20	=20	=20	=20	=20
8d\L	.	4ff\	.	2.ryy	4f\	de-	2.ryy	2.ryy	2.ryy	2.ryy	2.ryy
8B-\J	.	.	.	.	.	.	.	.	.	.	.
4c\	.	4g/	.	.	8e\L	-dit	.	.	.	.	.
.	.	.	.	.	8d\J	.	.	.	.	.	.
4C/	.	4g/	.	.	8c\L	pau-	.	.	.	.	.
.	.	.	.	.	8B-\J	.	.	.	.	.	.
=21	=21	=21	=21	=21	=21	=21	=21	=21	=21	=21	=21
8F\L	.	8a/L	.	2.ryy	8A\	-pe-	2.ryy	2.ryy	2.ryy	2.ryy	2.ryy
8F\	.	8g/J	.	.	8G\	-ri-	.	.	.	.	.
8C\	.	4f/	.	.	4F\	-bus	.	.	.	.	.
8F\	.	.	.	.	.	.	.	.	.	.	.
8GG\	.	4r	.	.	4r	.	.	.	.	.	.
8C\J	.	.	.	.	.	.	.	.	.	.	.
=22	=22	=22	=22	=22	=22	=22	=22	=22	=22	=22	=22
!LO:TX:t=P:problem=mixed beam	!	!	!	!	!	!	!	!	!	!	!
8FF/L	.	8b-\L	.	2.ryy	4d\	jus-	2.ryy	2.ryy	2.ryy	2.ryy	2.ryy
8F\	.	8b-\	.	.	.	.	.	.	.	.	.
8F\	.	8b-\	.	.	4d\	-ti-	.	.	.	.	.
8F\	.	8b-\	.	.	.	.	.	.	.	.	.
8F\	.	8b-\	.	.	8d\	-ti-	.	.	.	.	.
8F\J	.	8b-\J	.	.	8d\	-a	.	.	.	.	.
=23	=23	=23	=23	=23	=23	=23	=23	=23	=23	=23	=23
8F\L	.	8b-\L	.	2.ryy	8d\	e-	2.ryy	2.ryy	2.ryy	2.ryy	2.ryy
8F\	.	8b-\	.	.	8c\	-jus	.	.	.	.	.
!	!	!	!	!	!LO:LB:g=original	!	!	!	!	!	!
8F\	.	8a\	.	.	4f\	ma-	.	.	.	.	.
8F\	.	8a\	.	.	.	.	.	.	.	.	.
8A\	.	8ff\	.	.	8f\	-net	.	.	.	.	.
8A\J	.	8ff\J	.	.	8f\	in	.	.	.	.	.
!LO:LB:g=original	!	!	!	!	!	!	!	!	!	!	!
=24	=24	=24	=24	=24	=24	=24	=24	=24	=24	=24	=24
!LO:TX:t=P:problem=mixed beam	!	!	!	!	!	!LO:SIC:s=sae-	!	!	!	!	!
8B-\L	.	8ff\L	.	2.ryy	8g\L	se-	2.ryy	2.ryy	2.ryy	2.ryy	2.ryy
8B-\	.	8ff\	.	.	8f\J	.	.	.	.	.	.
8c\	.	8ee\	.	.	8e\	-cu-	.	.	.	.	.
8c\	.	8ee\	.	.	8d\	-lum	.	.	.	.	.
!	!	!	!	!	!	!LO:SIC:s=sae-	!	!	!	!	!
8C/	.	8ee\	.	.	8c\	se-	.	.	.	.	.
8C/J	.	8ee\J	.	.	8B-\	-cu-	.	.	.	.	.
=25	=25	=25	=25	=25	=25	=25	=25	=25	=25	=25	=25
8F\L	.	8ff\L	.	2.ryy	4A\	-li	2.ryy	2.ryy	2.ryy	2.ryy	2.ryy
8F\	.	8ff\	.	.	.	.	.	.	.	.	.
8F\	.	8ff\	.	.	4r	.	.	.	.	.	.
8F\	.	8ff\	.	.	.	.	.	.	.	.	.
!	!	!	!	!	!	!LO:SIC:s=cor-	!	!	!	!	!
8G\	.	8dd\	.	.	8d\	Cor-	.	.	.	.	.
8G\J	.	8dd\J	.	.	8Bn\	-nu	.	.	.	.	.
=26	=26	=26	=26	=26	=26	=26	=26	=26	=26	=26	=26
8G\L	.	8cc\L	.	2.ryy	8c\L	e-	2.ryy	2.ryy	2.ryy	2.ryy	2.ryy
8G\	.	8cc\	.	.	8e\J	.	.	.	.	.	.
8G\	.	8ee\	.	.	4g\	-jus	.	.	.	.	.
8G\	.	8ee\	.	.	.	.	.	.	.	.	.
8G\	.	8dd\	.	.	8f\	e-	.	.	.	.	.
8G\J	.	8dd\J	.	.	8d\	-xal-	.	.	.	.	.
=27	=27	=27	=27	=27	=27	=27	=27	=27	=27	=27	=27
8G\L	.	8cc\L	.	2.ryy	8c\	-ta-	2.ryy	2.ryy	2.ryy	2.ryy	2.ryy
8G\	.	8bn\	.	.	8Bn\	-bi-	.	.	.	.	.
8G\	.	8cc\	.	.	4c\	-tur	.	.	.	.	.
8G\	.	8cc\	.	.	.	.	.	.	.	.	.
8G\	.	8dd\	.	.	8d\	e-	.	.	.	.	.
!	!	!	!	!	!LO:SIC:s=8B	!	!	!	!	!	!
8G\J	.	8dd\J	.	.	8Bn\	-xal-	.	.	.	.	.
!	!	!	!	!	!LO:LB:g=original	!	!	!	!	!	!
=28	=28	=28	=28	=28	=28	=28	=28	=28	=28	=28	=28
8G\L	.	8cc\L	.	2.ryy	8c\	-ta-	2.ryy	2.ryy	2.ryy	2.ryy	2.ryy
8G\	.	8cc\	.	.	8e\	-bi-	.	.	.	.	.
8G\	.	8ee\	.	.	4g\	-tur	.	.	.	.	.
8G\	.	8ee\	.	.	.	.	.	.	.	.	.
8G\	.	8dd\	.	.	8f\L	in	.	.	.	.	.
8G\J	.	8dd\J	.	.	8d\J	.	.	.	.	.	.
!	!	!LO:LB:g=original	!	!	!	!	!	!	!	!	!
=29	=29	=29	=29	=29	=29	=29	=29	=29	=29	=29	=29
8G\L	.	8cc\L	.	2.ryy	8c\	glo-	2.ryy	2.ryy	2.ryy	2.ryy	2.ryy
8G\	.	8bn\	.	.	8Bn\	-ri-	.	.	.	.	.
8G\	.	8cc\	.	.	4c\	-a	.	.	.	.	.
8G\	.	8cc\	.	.	.	.	.	.	.	.	.
8F\	.	8a\	.	.	4A\	in	.	.	.	.	.
8F\J	.	8a\J	.	.	.	.	.	.	.	.	.
=30	=30	=30	=30	=30	=30	=30	=30	=30	=30	=30	=30
4E\	.	4g/	.	2.ryy	8G\L	glo-	2.ryy	2.ryy	2.ryy	2.ryy	2.ryy
.	.	.	.	.	8c\J	.	.	.	.	.	.
!	!	!LO:SIC:v:s=4.b\	!	!	!	!	!	!	!	!	!
4G\	.	4.b-\	.	.	4.d\	.	.	.	.	.	.
4GG/	.	.	.	.	.	.	.	.	.	.	.
!	!	!LO:SIC:v:s=8b	!	!	!	!	!	!	!	!	!
.	.	8b-\	.	.	8d\	-ri-	.	.	.	.	.
=31	=31	=31	=31	=31	=31	=31	=31	=31	=31	=31	=31
!	!LO:DY:a:t=for&colon;	!	!	!	!	!LO:SIC:s=-a.	!	!	!	!	!
4C\	f	4cc\	.	2.ryy	4c\	-a	2.ryy	2.ryy	2.ryy	2.ryy	2.ryy
4E\	.	4r	.	.	4r	.	.	.	.	.	.
!	!	!	!LO:DY:a:t=for&colon;	!	!	!	!	!	!	!	!
4C\	.	4e/	f	.	4r	.	.	.	.	.	.
=32	=32	=32	=32	=32	=32	=32	=32	=32	=32	=32	=32
!	!	!	!	!	!LO:N:vis=00	!	!	!	!	!	!
4G\	.	4d/	.	2.ryy	0.r	.	2.ryy	2.ryy	2.ryy	2.ryy	2.ryy
4G\	.	4d/	.	.	.	.	.	.	.	.	.
4G\	.	4d/	.	.	.	.	.	.	.	.	.
=33	=33	=33	=33	=33	=33	=33	=33	=33	=33	=33	=33
4G\	.	4e/	.	2.ryy	.	.	2.ryy	2.ryy	2.ryy	2.ryy	2.ryy
4G\	.	4e/	.	.	.	.	.	.	.	.	.
4G\	.	4e/	.	.	.	.	.	.	.	.	.
=34	=34	=34	=34	=34	=34	=34	=34	=34	=34	=34	=34
4G\	.	4bn\	.	2.ryy	.	.	2.ryy	2.ryy	2.ryy	2.ryy	2.ryy
4G\	.	4b\	.	.	.	.	.	.	.	.	.
4G\	.	4b\	.	.	.	.	.	.	.	.	.
=35	=35	=35	=35	=35	=35	=35	=35	=35	=35	=35	=35
8r	.	2.dd\	.	2.ryy	.	.	2.ryy	2.ryy	2.ryy	2.ryy	2.ryy
8GG/L	.	.	.	.	.	.	.	.	.	.	.
8BBn/	.	.	.	.	.	.	.	.	.	.	.
8D/	.	.	.	.	.	.	.	.	.	.	.
8G/	.	.	.	.	.	.	.	.	.	.	.
8GG/J	.	.	.	.	.	.	.	.	.	.	.
!LO:LB:g=original	!	!	!	!	!	!	!	!	!	!	!
=36	=36	=36	=36	=36	=36	=36	=36	=36	=36	=36	=36
!	!	!	!	!	!LO:N:vis=00	!	!	!	!	!	!
8C\L	.	12ee\L	.	2.ryy	0.r	.	2.ryy	2.ryy	2.ryy	2.ryy	2.ryy
.	.	12cc\	.	.	.	.	.	.	.	.	.
8F\J	.	.	.	.	.	.	.	.	.	.	.
.	.	12a\J	.	.	.	.	.	.	.	.	.
.	.	8qqcc/	.	.	.	.	.	.	.	.	.
4G\	.	2bn\	.	.	.	.	.	.	.	.	.
4GG/	.	.	.	.	.	.	.	.	.	.	.
=37	=37	=37	=37	=37	=37	=37	=37	=37	=37	=37	=37
!	!LO:DY:a:t=pia&colon;	!	!LO:DY:a:t=pia&colon;	!	!	!	!	!	!	!	!
4G\	p	4d/	p	2.ryy	.	.	2.ryy	2.ryy	2.ryy	2.ryy	2.ryy
4G\	.	4d/	.	.	.	.	.	.	.	.	.
4G\	.	4d/	.	.	.	.	.	.	.	.	.
=38	=38	=38	=38	=38	=38	=38	=38	=38	=38	=38	=38
4G\	.	4e/	.	2.ryy	.	.	2.ryy	2.ryy	2.ryy	2.ryy	2.ryy
4G\	.	4e/	.	.	.	.	.	.	.	.	.
4G\	.	4e/	.	.	.	.	.	.	.	.	.
=39	=39	=39	=39	=39	=39	=39	=39	=39	=39	=39	=39
4G\	.	4bn\	.	2.ryy	.	.	2.ryy	2.ryy	2.ryy	2.ryy	2.ryy
4G\	.	4b\	.	.	.	.	.	.	.	.	.
4G\	.	4b\	.	.	.	.	.	.	.	.	.
=40	=40	=40	=40	=40	=40	=40	=40	=40	=40	=40	=40
!	!	!	!	!	!LO:N:vis=00	!	!	!	!	!	!
8r	.	2.dd\	.	2.ryy	0.r	.	2.ryy	2.ryy	2.ryy	2.ryy	2.ryy
8GG/L	.	.	.	.	.	.	.	.	.	.	.
8BBn/	.	.	.	.	.	.	.	.	.	.	.
8D/	.	.	.	.	.	.	.	.	.	.	.
8G/	.	.	.	.	.	.	.	.	.	.	.
8GG/J	.	.	.	.	.	.	.	.	.	.	.
=41	=41	=41	=41	=41	=41	=41	=41	=41	=41	=41	=41
8C\L	.	12ee\L	.	2.ryy	.	.	2.ryy	2.ryy	2.ryy	2.ryy	2.ryy
.	.	12cc\	.	.	.	.	.	.	.	.	.
8F\J	.	.	.	.	.	.	.	.	.	.	.
.	.	12a\J	.	.	.	.	.	.	.	.	.
.	.	8qqcc/	.	.	.	.	.	.	.	.	.
4G\	.	2bn\	.	.	.	.	.	.	.	.	.
!	!LO:DY:a:t=for&colon;	!	!	!	!	!	!	!	!	!	!
4GG/	f	.	.	.	.	.	.	.	.	.	.
=42	=42	=42	=42	=42	=42	=42	=42	=42	=42	=42	=42
!LO:TX:t=P:problem=mixed beam	!	!	!LO:DY:a:t=for&colon;	!	!	!	!	!	!	!	!
8C/L	.	8cc\L	f	2.ryy	.	.	2.ryy	2.ryy	2.ryy	2.ryy	2.ryy
8c\	.	8cc\	.	.	.	.	.	.	.	.	.
8G\	.	8g\	.	.	.	.	.	.	.	.	.
8c\	.	8cc\	.	.	.	.	.	.	.	.	.
8G\	.	8g\	.	.	.	.	.	.	.	.	.
8E\J	.	8e\J	.	.	.	.	.	.	.	.	.
=43	=43	=43	=43	=43	=43	=43	=43	=43	=43	=43	=43
2C/	.	2c/	.	2.ryy	.	.	2.ryy	2.ryy	2.ryy	2.ryy	2.ryy
4r	.	4r	.	.	.	.	.	.	.	.	.
!	!	!LO:LB:g=original	!	!	!	!	!	!	!	!	!
=44	=44	=44	=44	=44	=44	=44	=44	=44	=44	=44	=44
*	*	*	*	*	*2\right	*	*	*	*	*	*
!	!LO:DY:a:t=pia&colon;	!	!LO:DY:a:t=pia&colon;	!	!	!	!	!	!	!	!
!	!LO:MO:mod=.	!	!LO:MO:mod=.	!	!	!	!	!	!	!	!
8r	p	8r	p	2.ryy	2.c\	Pec-	2.ryy	2.ryy	2.ryy	2.ryy	2.ryy
!	!LO:MO:null:mod=p	!	!LO:MO:null:mod=p	!	!	!	!	!	!	!	!
8C\L	.	8e/L	.	.	.	.	.	.	.	.	.
8D\	.	8f/	.	.	.	.	.	.	.	.	.
8E\	.	8g/	.	.	.	.	.	.	.	.	.
8F\	.	8a/	.	.	.	.	.	.	.	.	.
8G\J	.	8bn/J	.	.	.	.	.	.	.	.	.
=45	=45	=45	=45	=45	=45	=45	=45	=45	=45	=45	=45
8A\L	.	4cc\	.	2.ryy	4c\	-ca-	2.ryy	2.ryy	2.ryy	2.ryy	2.ryy
8F\J	.	.	.	.	.	.	.	.	.	.	.
4G\	.	4d/	.	.	8Bn\L	-tor	.	.	.	.	.
.	.	.	.	.	8A\J	.	.	.	.	.	.
4GG/	.	4d/	.	.	8G\L	vi-	.	.	.	.	.
.	.	.	.	.	8f\J	.	.	.	.	.	.
!	!	!	!	!	!LO:LB:g=original	!	!	!	!	!	!
=46	=46	=46	=46	=46	=46	=46	=46	=46	=46	=46	=46
8C\L	.	8e/L	.	2.ryy	8e\L	-de-	2.ryy	2.ryy	2.ryy	2.ryy	2.ryy
8c\	.	8d/J	.	.	8d\J	.	.	.	.	.	.
8G\	.	4c/	.	.	4c\	-bit	.	.	.	.	.
8E\J	.	.	.	.	.	.	.	.	.	.	.
4C/	.	4r	.	.	4r	.	.	.	.	.	.
=47	=47	=47	=47	=47	=47	=47	=47	=47	=47	=47	=47
8r	.	8r	.	2.ryy	2.f\	et	2.ryy	2.ryy	2.ryy	2.ryy	2.ryy
8F\L	.	8a\L	.	.	.	.	.	.	.	.	.
8G\	.	8b-X\	.	.	.	.	.	.	.	.	.
8A\	.	8cc\	.	.	.	.	.	.	.	.	.
8B-\	.	8dd\	.	.	.	.	.	.	.	.	.
8c\J	.	8ee\J	.	.	.	.	.	.	.	.	.
=48	=48	=48	=48	=48	=48	=48	=48	=48	=48	=48	=48
8d\L	.	4ff\	.	2.ryy	4f\	i-	2.ryy	2.ryy	2.ryy	2.ryy	2.ryy
8B-\J	.	.	.	.	.	.	.	.	.	.	.
4c\	.	4g/	.	.	8e\L	-ras-	.	.	.	.	.
.	.	.	.	.	8d\	.	.	.	.	.	.
4C/	.	4g/	.	.	8c\	.	.	.	.	.	.
.	.	.	.	.	8B-X\J	.	.	.	.	.	.
=49	=49	=49	=49	=49	=49	=49	=49	=49	=49	=49	=49
8F\L	.	8a/L	.	2.ryy	8A/L	-ce-	2.ryy	2.ryy	2.ryy	2.ryy	2.ryy
8F\	.	8g/J	.	.	8G/J	.	.	.	.	.	.
8C\	.	4f/	.	.	4F/	-tur	.	.	.	.	.
8F\	.	.	.	.	.	.	.	.	.	.	.
8C\	.	4r	.	.	4r	.	.	.	.	.	.
8AA\J	.	.	.	.	.	.	.	.	.	.	.
!LO:LB:g=original	!	!	!	!	!	!	!	!	!	!	!
=50	=50	=50	=50	=50	=50	=50	=50	=50	=50	=50	=50
!LO:TX:t=P:problem=mixed beam	!	!	!	!	!	!LO:SIC:s=den-	!	!	!	!	!
8FF/L	.	8cc\L	.	2.ryy	4e-X\	Den-	2.ryy	2.ryy	2.ryy	2.ryy	2.ryy
8F\	.	8cc\	.	.	.	.	.	.	.	.	.
8F\	.	8cc\	.	.	8e-\	-ti-	.	.	.	.	.
8F\	.	8cc\	.	.	8e-\	-bus	.	.	.	.	.
8F\	.	8cc\	.	.	8e-\	ſu-	.	.	.	.	.
!	!	!	!	!	!	!LO:SIC:s=-is	!	!	!	!	!
8F\J	.	8cc\J	.	.	8e-\	-i	.	.	.	.	.
=51	=51	=51	=51	=51	=51	=51	=51	=51	=51	=51	=51
!	!	!	!	!	!LO:SIC:v:s=(4e-\	!	!	!	!	!	!
4BB-/	.	4cc\	.	2.ryy	(4e\	fre-	2.ryy	2.ryy	2.ryy	2.ryy	2.ryy
4BB-/	.	4b-\	.	.	4d\)	.	.	.	.	.	.
4A\	.	[4f/	.	.	4c\	-met	.	.	.	.	.
!	!	!	!	!	!LO:LB:g=original	!	!	!	!	!	!
=52	=52	=52	=52	=52	=52	=52	=52	=52	=52	=52	=52
!	!	!	!	!	!LO:SIC:s=(4c	!LO:SIC:s=et	!	!	!	!	!
4A\	.	4f/]	.	2.ryy	4c\	e	2.ryy	2.ryy	2.ryy	2.ryy	2.ryy
!	!	!	!	!	!LO:SIC:s=4B-)	!	!	!	!	!	!
4G\	.	4en/	.	.	4B-\	.	.	.	.	.	.
4F\	.	4f/	.	.	4A\	ta-	.	.	.	.	.
=53	=53	=53	=53	=53	=53	=53	=53	=53	=53	=53	=53
!LO:TX:t=P:problem=mixed beam	!	!	!	!	!	!	!	!	!	!	!
8c\L	.	4f/	.	2.ryy	4A\	-bes-	2.ryy	2.ryy	2.ryy	2.ryy	2.ryy
8C/	.	.	.	.	.	.	.	.	.	.	.
8E/	.	4e/	.	.	4G\	-cet	.	.	.	.	.
8G/	.	.	.	.	.	.	.	.	.	.	.
8c/	.	4ee\	.	.	4r	.	.	.	.	.	.
8C/J	.	.	.	.	.	.	.	.	.	.	.
=54	=54	=54	=54	=54	=54	=54	=54	=54	=54	=54	=54
4C/	.	4g/	.	2.ryy	2c\	de-	2.ryy	2.ryy	2.ryy	2.ryy	2.ryy
4C/	.	4g/	.	.	.	.	.	.	.	.	.
4C/	.	4g/	.	.	4c\	-si-	.	.	.	.	.
=55	=55	=55	=55	=55	=55	=55	=55	=55	=55	=55	=55
4C/	.	4a/	.	2.ryy	4.c\	-de-	2.ryy	2.ryy	2.ryy	2.ryy	2.ryy
4C/	.	4a/	.	.	.	.	.	.	.	.	.
.	.	.	.	.	8c\	-ri-	.	.	.	.	.
4C/	.	4a/	.	.	4c\	-um	.	.	.	.	.
=56	=56	=56	=56	=56	=56	=56	=56	=56	=56	=56	=56
4C/	.	4ee\	.	2.ryy	2c\	pec-	2.ryy	2.ryy	2.ryy	2.ryy	2.ryy
4C/	.	4ee\	.	.	.	.	.	.	.	.	.
4C/	.	4ee\	.	.	12c\L	-ca-	.	.	.	.	.
.	.	.	.	.	12e\	.	.	.	.	.	.
.	.	.	.	.	12g\J	.	.	.	.	.	.
!	!	!LO:LB:g=original	!	!	!	!	!	!	!	!	!
=57	=57	=57	=57	=57	=57	=57	=57	=57	=57	=57	=57
.	.	.	.	.	8qqc/	.	.	.	.	.	.
8r	.	2.gg\	.	2.ryy	2B-\	-to-	2.ryy	2.ryy	2.ryy	2.ryy	2.ryy
!LO:TX:t=P:problem=mixed beam	!	!	!	!	!	!	!	!	!	!	!
8C\L	.	.	.	.	.	.	.	.	.	.	.
8E\	.	.	.	.	.	.	.	.	.	.	.
8G\	.	.	.	.	.	.	.	.	.	.	.
8c\	.	.	.	.	4B-\	-rum	.	.	.	.	.
8C/J	.	.	.	.	.	.	.	.	.	.	.
=58	=58	=58	=58	=58	=58	=58	=58	=58	=58	=58	=58
*	*	*	*	*	*Xtuplet	*	*	*	*	*	*
8F\L	.	12aa\L	.	2.ryy	12a\L	pe-	2.ryy	2.ryy	2.ryy	2.ryy	2.ryy
.	.	12ff\	.	.	12f\	.	.	.	.	.	.
8B-\J	.	.	.	.	.	.	.	.	.	.	.
.	.	12dd\J	.	.	12d\J	.	.	.	.	.	.
.	.	8qqff/	.	.	.	.	.	.	.	.	.
4c\	.	2ee\	.	.	4e\	-ri-	.	.	.	.	.
4C/	.	.	.	.	4e\	-bit	.	.	.	.	.
!	!	!	!	!	!LO:LB:g=original	!	!	!	!	!	!
=59	=59	=59	=59	=59	=59	=59	=59	=59	=59	=59	=59
4C/	.	4g/	.	2.ryy	2c\	de-	2.ryy	2.ryy	2.ryy	2.ryy	2.ryy
4C/	.	4g/	.	.	.	.	.	.	.	.	.
4C/	.	4g/	.	.	4c\	-si-	.	.	.	.	.
=60	=60	=60	=60	=60	=60	=60	=60	=60	=60	=60	=60
4C/	.	4a/	.	2.ryy	4.c\	-de-	2.ryy	2.ryy	2.ryy	2.ryy	2.ryy
4C/	.	4a/	.	.	.	.	.	.	.	.	.
.	.	.	.	.	8c\	-ri-	.	.	.	.	.
4C/	.	4a/	.	.	4c\	-um	.	.	.	.	.
=61	=61	=61	=61	=61	=61	=61	=61	=61	=61	=61	=61
4C/	.	4ee\	.	2.ryy	2c\	pec-	2.ryy	2.ryy	2.ryy	2.ryy	2.ryy
4C/	.	4ee\	.	.	.	.	.	.	.	.	.
4C/	.	4ee\	.	.	12c\L	-ca-	.	.	.	.	.
.	.	.	.	.	12e\	.	.	.	.	.	.
.	.	.	.	.	12g\J	.	.	.	.	.	.
=62	=62	=62	=62	=62	=62	=62	=62	=62	=62	=62	=62
.	.	.	.	.	8qqc/	.	.	.	.	.	.
8r	.	2.gg\	.	2.ryy	2B-\	-to-	2.ryy	2.ryy	2.ryy	2.ryy	2.ryy
!LO:TX:t=P:problem=mixed beam	!	!	!	!	!	!	!	!	!	!	!
8C\L	.	.	.	.	.	.	.	.	.	.	.
8E\	.	.	.	.	.	.	.	.	.	.	.
8G\	.	.	.	.	.	.	.	.	.	.	.
8c\	.	.	.	.	4B-\	-rum	.	.	.	.	.
8C/J	.	.	.	.	.	.	.	.	.	.	.
=63	=63	=63	=63	=63	=63	=63	=63	=63	=63	=63	=63
8F\L	.	12aa\L	.	2.ryy	12a\L	pe-	2.ryy	2.ryy	2.ryy	2.ryy	2.ryy
.	.	12ff\	.	.	12f\	.	.	.	.	.	.
8B-\J	.	.	.	.	.	.	.	.	.	.	.
.	.	12dd\J	.	.	12d\J	.	.	.	.	.	.
.	.	8qqff/	.	.	8qqf/	.	.	.	.	.	.
4c\	.	2ee\	.	.	2e\	-ri-	.	.	.	.	.
4C/	.	.	.	.	.	.	.	.	.	.	.
!LO:MO:null:mod==64||	!LO:MO:null:mod==64||	!LO:MO:null:mod==64||	!LO:MO:null:mod==64||	!LO:MO:null:mod==64||	!LO:MO:null:mod==64||	!LO:MO:null:mod==64||	!LO:MO:null:mod==64||	!LO:MO:null:mod==64||	!LO:MO:null:mod==64||	!LO:MO:null:mod==64||	!LO:MO:null:mod==64||
=64	=64	=64	=64	=64	=64	=64	=64	=64	=64	=64	=64
!	!	!	!LO:MO:mod=!LO&colon;DY&colon;ed=brack	!	!	!	!	!	!	!	!
!	!	!	!null	!	!	!	!	!	!	!	!
!LO:TX:a:i:mod= :t=Da Capo.	!	!LO:TX:a:i:mod= :t=Da Capo&colon;	!LO:MO:null:mod=f	!	!	!LO:SIC:s=-bit.	!	!	!	!	!
8ryy	.	2.ff\yy	.	2.ryy	4f\	-bit	2.ryy	2.ryy	2.ryy	2.ryy	2.ryy
!	!LO:MO:mod=!LO&colon;DY&colon;ed=brack	!	!	!	!	!	!	!	!	!	!
!	!null	!	!	!	!	!	!	!	!	!	!
!	!LO:MO:null:mod=f	!	!	!	!	!	!	!	!	!	!
8F\Lyy	.	.	.	.	.	.	.	.	.	.	.
8G\yy	.	.	.	.	4r	.	.	.	.	.	.
8A\yy	.	.	.	.	.	.	.	.	.	.	.
8B-\yy	.	.	.	.	4r	.	.	.	.	.	.
8c\Jyy	.	.	.	.	.	.	.	.	.	.	.
=65	=65	=65	=65	=65	=65	=65	=65	=65	=65	=65	=65
!	!	!	!	!	!LO:N:vis=00	!	!	!	!	!	!
8d\Lyy	.	4ff\yy	.	2.ryy	0.r	.	2.ryy	2.ryy	2.ryy	2.ryy	2.ryy
8B-\Jyy	.	.	.	.	.	.	.	.	.	.	.
4c\yy	.	8ee\Lyy	.	.	.	.	.	.	.	.	.
.	.	8dd\yy	.	.	.	.	.	.	.	.	.
4C/yy	.	8cc\yy	.	.	.	.	.	.	.	.	.
.	.	8b-\Jyy	.	.	.	.	.	.	.	.	.
=66	=66	=66	=66	=66	=66	=66	=66	=66	=66	=66	=66
8F\Lyy	.	8a/Lyy	.	2.ryy	.	.	2.ryy	2.ryy	2.ryy	2.ryy	2.ryy
8F\yy	.	8g/Jyy	.	.	.	.	.	.	.	.	.
8C\yy	.	4f/yy	.	.	.	.	.	.	.	.	.
8F\yy	.	.	.	.	.	.	.	.	.	.	.
8AA\yy	.	4ryy	.	.	.	.	.	.	.	.	.
8C\Jyy	.	.	.	.	.	.	.	.	.	.	.
=67	=67	=67	=67	=67	=67	=67	=67	=67	=67	=67	=67
!LO:TX:t=P:problem=mixed beam	!	!LO:TX:t=P:problem=mixed beam	!	!	!	!	!	!	!	!	!
8FF/Lyy	.	8f/Lyy	.	2.ryy	.	.	2.ryy	2.ryy	2.ryy	2.ryy	2.ryy
8F\yy	.	8aa\Jyy	.	.	.	.	.	.	.	.	.
8E\yy	.	4.aat\yy	.	.	.	.	.	.	.	.	.
8F\yy	.	.	.	.	.	.	.	.	.	.	.
8D\yy	.	.	.	.	.	.	.	.	.	.	.
8BBn\Jyy	.	16gg\LLyy	.	.	.	.	.	.	.	.	.
.	.	16ff\JJyy	.	.	.	.	.	.	.	.	.
=68	=68	=68	=68	=68	=68	=68	=68	=68	=68	=68	=68
!	!	!LO:TX:t=P:problem=mixed beam	!	!	!	!	!	!	!	!	!
8ryy	.	8e/Lyy	.	2.ryy	.	.	2.ryy	2.ryy	2.ryy	2.ryy	2.ryy
8E\Lyy	.	8gg\Jyy	.	.	.	.	.	.	.	.	.
8D\yy	.	4.ggT\yy	.	.	.	.	.	.	.	.	.
8E\yy	.	.	.	.	.	.	.	.	.	.	.
8C\yy	.	.	.	.	.	.	.	.	.	.	.
8AA\Jyy	.	16ff\LLyy	.	.	.	.	.	.	.	.	.
.	.	16ee\JJyy	.	.	.	.	.	.	.	.	.
=69	=69	=69	=69	=69	=69	=69	=69	=69	=69	=69	=69
!	!	!LO:TX:t=P:problem=mixed beam	!	!	!LO:N:vis=00	!	!	!	!	!	!
8ryy	.	8d/Lyy	.	2.ryy	0.r	.	2.ryy	2.ryy	2.ryy	2.ryy	2.ryy
8D\Lyy	.	8ff\Jyy	.	.	.	.	.	.	.	.	.
8C\yy	.	4.ffT\yy	.	.	.	.	.	.	.	.	.
8D\yy	.	.	.	.	.	.	.	.	.	.	.
8BBn\yy	.	.	.	.	.	.	.	.	.	.	.
8GG\Jyy	.	16ee\LLyy	.	.	.	.	.	.	.	.	.
.	.	16dd\JJyy	.	.	.	.	.	.	.	.	.
=70	=70	=70	=70	=70	=70	=70	=70	=70	=70	=70	=70
4C\yy	.	4ee\yy	.	2.ryy	.	.	2.ryy	2.ryy	2.ryy	2.ryy	2.ryy
4C\yy	.	4g/yy	.	.	.	.	.	.	.	.	.
4C\yy	.	4g/yy	.	.	.	.	.	.	.	.	.
=71	=71	=71	=71	=71	=71	=71	=71	=71	=71	=71	=71
4C\yy	.	4a/yy	.	2.ryy	.	.	2.ryy	2.ryy	2.ryy	2.ryy	2.ryy
4C\yy	.	4a/yy	.	.	.	.	.	.	.	.	.
4C\yy	.	4a/yy	.	.	.	.	.	.	.	.	.
=72	=72	=72	=72	=72	=72	=72	=72	=72	=72	=72	=72
4C\yy	.	4ee\yy	.	2.ryy	.	.	2.ryy	2.ryy	2.ryy	2.ryy	2.ryy
4C\yy	.	4ee\yy	.	.	.	.	.	.	.	.	.
4C\yy	.	4ee\yy	.	.	.	.	.	.	.	.	.
=73	=73	=73	=73	=73	=73	=73	=73	=73	=73	=73	=73
!	!	!	!	!	!LO:N:vis=00	!	!	!	!	!	!
8ryy	.	2.gg\yy	.	2.ryy	0.r	.	2.ryy	2.ryy	2.ryy	2.ryy	2.ryy
!LO:TX:t=P:problem=mixed beam	!	!	!	!	!	!	!	!	!	!	!
8C\Lyy	.	.	.	.	.	.	.	.	.	.	.
8E\yy	.	.	.	.	.	.	.	.	.	.	.
8G\yy	.	.	.	.	.	.	.	.	.	.	.
8c\yy	.	.	.	.	.	.	.	.	.	.	.
8C/Jyy	.	.	.	.	.	.	.	.	.	.	.
=74	=74	=74	=74	=74	=74	=74	=74	=74	=74	=74	=74
8F\Lyy	.	12aa\Lyy	.	2.ryy	.	.	2.ryy	2.ryy	2.ryy	2.ryy	2.ryy
.	.	12ff\yy	.	.	.	.	.	.	.	.	.
8B-\Jyy	.	.	.	.	.	.	.	.	.	.	.
.	.	12dd\Jyy	.	.	.	.	.	.	.	.	.
.	.	8qqff/yy	.	.	.	.	.	.	.	.	.
4c\yy	.	2ee\yy	.	.	.	.	.	.	.	.	.
4C/yy	.	.	.	.	.	.	.	.	.	.	.
=75	=75	=75	=75	=75	=75	=75	=75	=75	=75	=75	=75
!	!LO:DY:a:t=piano.	!	!LO:DY:a:t=pia&colon;	!	!	!	!	!	!	!	!
!	!LO:MO:mod=p	!	!LO:MO:mod=p	!	!	!	!	!	!	!	!
4C/yy	py	4g/yy	py	2.ryy	.	.	2.ryy	2.ryy	2.ryy	2.ryy	2.ryy
4C/yy	.	4g/yy	.	.	.	.	.	.	.	.	.
4C/yy	.	4g/yy	.	.	.	.	.	.	.	.	.
=76	=76	=76	=76	=76	=76	=76	=76	=76	=76	=76	=76
4C/yy	.	4a/yy	.	2.ryy	.	.	2.ryy	2.ryy	2.ryy	2.ryy	2.ryy
4C/yy	.	4a/yy	.	.	.	.	.	.	.	.	.
4C/yy	.	4a/yy	.	.	.	.	.	.	.	.	.
=77	=77	=77	=77	=77	=77	=77	=77	=77	=77	=77	=77
!	!	!	!	!	!LO:N:vis=00	!	!	!	!	!	!
4C/yy	.	4gg\yy	.	2.ryy	0.r	.	2.ryy	2.ryy	2.ryy	2.ryy	2.ryy
4C/yy	.	4gg\yy	.	.	.	.	.	.	.	.	.
4C/yy	.	4gg\yy	.	.	.	.	.	.	.	.	.
=78	=78	=78	=78	=78	=78	=78	=78	=78	=78	=78	=78
8ryy	.	2.gg\yy	.	2.ryy	.	.	2.ryy	2.ryy	2.ryy	2.ryy	2.ryy
!LO:TX:t=P:problem=mixed beam	!	!	!	!	!	!	!	!	!	!	!
8C\Lyy	.	.	.	.	.	.	.	.	.	.	.
8E\yy	.	.	.	.	.	.	.	.	.	.	.
8G\yy	.	.	.	.	.	.	.	.	.	.	.
8c\yy	.	.	.	.	.	.	.	.	.	.	.
8C/Jyy	.	.	.	.	.	.	.	.	.	.	.
=79	=79	=79	=79	=79	=79	=79	=79	=79	=79	=79	=79
8F\Lyy	.	12aa\Lyy	.	2.ryy	.	.	2.ryy	2.ryy	2.ryy	2.ryy	2.ryy
.	.	12ff\yy	.	.	.	.	.	.	.	.	.
8B-\Jyy	.	.	.	.	.	.	.	.	.	.	.
.	.	12dd\Jyy	.	.	.	.	.	.	.	.	.
.	.	8qqff/yy	.	.	.	.	.	.	.	.	.
4c\yy	.	2ee\yy	.	.	.	.	.	.	.	.	.
4C/yy	.	.	.	.	.	.	.	.	.	.	.
!	!	!LO:LB:g=original	!	!	!	!	!	!	!	!	!
=80	=80	=80	=80	=80	=80	=80	=80	=80	=80	=80	=80
!	!LO:DY:a:t=for&colon;	!	!LO:DY:a:t=for	!	!	!	!	!	!	!	!
!	!LO:MO:mod=f	!	!LO:MO:mod=f	!	!	!	!	!	!	!	!
8F\Lyy	fy	8ff\Lyy	fy	2.ryyy	.	.	2.ryy	2.ryy	2.ryy	2.ryy	2.ryy
8f\yy	.	8ff\yy	.	.	.	.	.	.	.	.	.
8c\yy	.	8cc|\yy	.	.	.	.	.	.	.	.	.
8f\yy	.	8ff|\yy	.	.	.	.	.	.	.	.	.
8c\yy	.	8cc|\yy	.	.	.	.	.	.	.	.	.
8A\Jyy	.	8a|\Jyy	.	.	.	.	.	.	.	.	.
=81	=81	=81	=81	=81	=81	=81	=81	=81	=81	=81	=81
!LO:SIC:s=2F;	!	!LO:SIC:s=2f;	!	!	!	!	!	!	!	!	!
2F;;\yy	.	2f;;/yy	.	2.ryy	2.r	.	2.ryy	2.ryy	2.ryy	2.ryy	2.ryy
4ryy	.	4ryy	.	.	.	.	.	.	.	.	.
==	==	==	==	==	==	==	==	==	==	==	==
*-	*-	*-	*-	*-	*-	*-	*-	*-	*-	*-	*-
!!!system-decoration: [(ww)][(bras)][vox][(str)][klav]
!!LO:MO:ori
!!!RDF**kern: | = vertical stroke
!!LO:MO:end
!!!filter-modern: shed -e "s/LO:N:/LO:n:$1/L" | shed -e "s/^(\d+[\/\\]right)/$1yy/I" | shed -e "s/LO:DY:/LO:dy:$1/L" | shed -e "s/TX(.*):t=P:/tx$1:t=P:/LG" | shed -e "s/^(X?)tuplet$/$1TUPLET/I" | shed -e "s/yy//" | sic -sq | modori -m | autostem -r | tie -s | humtr -p
!!!EED: Anna Matuszewska
!!!EEV: 2020-08-30
!!!EED-revision: Andrzej Kubiczek
!!!EEV-revision: 2025-03-06
!!!ENC-modern: Andrzej Kubiczek
!!!END-modern: 2025-03-06
